X: 1471
T: Anderson's
R: reel
M: 4/4
K: Dmajor
ABdf efdB|AF F2 EFDB|ABdf e2df|afef dedB|
ABdf efdB|AF F2 EFDB|ABdf e2df|afef d3f||
a2fa bafb|a2fd edBd|a2fa bafb|afef d3f|
a2fa bafb|a2fd edBd|A2FB ABdf|afef d3B||

